X: 2168
T: Şen Gözlerinle Yüzüme Bir...
C: Alâeddin Yavaşca
O: Turkey
F: http://compmusic.upf.edu/node/140
N: hicazkar--sarki--duyek--sen_gozlerinle--alaeddin_yavasca
N: makam= hicazkar
N: form= sarki
N: usul= duyek = 8/4
M: 8/4
L: 1/16
K: C _1/4B _7/8e _7/8A ^f
Q: 1/4=120
%%MIDI tuningsystem comma53
g4 z2 (3def g2 (3def g2 z2  | f4 z2 (3agf e2 (3gfe d2 z2  | 
w:  ARANAĞME  |   | 
z2 e2 d2 e2 g2 =f_1/4e f2 _7/8ed  | \
w:   | 
c2 e2 d2 eg fe dc B4  | z2 GA Gd cB AG FA G4  | 
w:   |   | 
g4 z2 (3def g2 (3def g2 z2  | f4 z2 (3agf e2 (3gfe d2 z2  | 
w:  ARANAĞME  |   | 
z2 e2 d2 e2 g2 =f_1/4e f2 _7/8ed  | \
w:   | 
c2 e2 d2 eg fe dc B4  | z2 Bc _7/8d2 cB BA AG G4  | 
w:   |   | 
g4 z2 d2 e2 f2 g4  | z2 .d2 .B2 .G4 zd ef g2  | \
w:  Şen  göz le rin le   |  SAZ  | 
z2 ag gf {g}fe g3f e2 ed  | 
w:  yü *  zü *  *  me  *  bir  *  bak  | 
d6 c2 B3/2c/ Bc d4  | z2 B2 c2 d2 e3/2d/ e2 f3/2e/ f2  | \
w:  tın   SAZ  |  yü zü me  bir  *  *  bak  | 
g4 z2 fg fa gf eg fe  | 
w:  tın   SAZ  | 
df ed c2 {f}ed e2 f2 g4  | g4 f2 g2 f2 g2 a4  | \
w:   |  *  Gö züm *  *  den   | 
g4 f2 g4 fe e4  | 
w:  *  *  yol  bu *  lup   | 
z2 fg e2 d2 c2 d2 e2 ed  | =f2 ed e2 dc dc BA B4  | 
w:  gön *  *  lü me  *  ak  |  tın    | 
z2 Bc _7/8d2 cB cB2c BA AG  | G4 z2 fg fa gf eg fe  | 
w:  gön *  *  lü *  me  *  *  ak  |  tın   SAZ  | 
df ed c2 {f}ed e2 f2 g4  | g4 f2 g2 f2 g2 a4  | \
w:   |  *  Gö züm *  *  den   | 
g4 f2 g4 fe e4  | 
w:  *  *  yol  bu *  lup   | 
z2 fg e2 d2 c2 d2 e2 ed  | =f2 ed e2 dc dc BA B4  | 
w:  gön *  *  lü me  *  ak  |  tın    | 
z2 Bc _7/8d2 cB cB2c BA AG  | .G2 .B2 .d2 .g2 d3/2B/ cA G4  | 
w:  gön *  *  lü *  me  *  *  ak  |  tın   SAZ  | 
z2 g4 =a_b ag g=f g4  | z2 =f4 g2 g2 fg =a2 {b}ag  | \
w:   |  Kal bi me  *  *  gir  | 
=f2 g4 =a_b ag fg f_1/4e d2  | 
w:  din   | 
=a2 _b4 d'2 c'b ag =fe ed  | d2 _B2 =A2 G2 zd ef g4  | \
w:  a teş  gi bi  *  *  *  yak  |  tın   SAZ  | 
g2 b2 a2 g2 f2 g2 a2 {b}ag  | 
w:  a teş  *  gi bi  *  yak  | 
g4 z2 fg fa gf eg fe  | df ed c2 {f}ed e2 f2 g4  | 
w:  tın   SAZ  |   | 
g4 f2 g2 f2 g2 a4  | g4 f2 g4 fe e4  | \
w:  *  Gö züm *  *  den   |  *  *  yol  bu *  lup   | 
z2 fg e2 d2 c2 d2 e2 ed  | 
w:  gön *  *  lü me  *  ak  | 
=f2 ed e2 dc dc BA B4  | z2 Bc _7/8d2 cB cB2c BA AG  | 
w:  tın    |  gön *  *  lü *  me  *  *  ak  | 
G4 z2 fg fa gf eg fe  | df ed c2 {f}ed e2 f2 g4  | 
w:  tın   SAZ  |   | 
g4 f2 g2 f2 g2 a4  | g4 f2 g4 fe e4  | \
w:  *  Gö züm *  *  den   |  *  *  yol  bu *  lup   | 
z2 fg e2 d2 c2 d2 e2 ed  | 
w:  gön *  *  lü me  *  ak  | 
=f2 ed e2 dc dc BA B4  | z2 Bc _7/8d2 cB cB2c BA AG  | 
w:  tın    |  gön *  *  lü *  me  *  *  ak  | 
.G2 |
w:  tın    | 


